static/img/kroki/e6884d61bd98de81bed5364009f7cd8a.svg

<?xml version="1.0" encoding="us-ascii" standalone="no"?><svg xmlns="http://www.w3.org/2000/svg" xmlns:xlink="http://www.w3.org/1999/xlink" contentStyleType="text/css" height="374px" preserveAspectRatio="none" style="width:212px;height:374px;" version="1.1" viewBox="0 0 212 374" width="212px" zoomAndPan="magnify"><defs/><g><!--class azure_usage--><g id="elem_azure_usage"><rect codeLine="23" fill="#3D176E" height="39.7891" id="azure_usage" rx="2.5" ry="2.5" style="stroke:#000D19;stroke-width:0.5;" width="146" x="33" y="328.58"/><ellipse cx="48" cy="348.4745" fill="#ADD1B2" rx="11" ry="11" style="stroke:#181818;stroke-width:1.0;"/><path d="M50.9688,354.1152 Q50.3906,354.412 49.75,354.5527 Q49.1094,354.7089 48.4063,354.7089 Q45.9063,354.7089 44.5781,353.0683 Q43.2656,351.412 43.2656,348.287 Q43.2656,345.162 44.5781,343.5058 Q45.9063,341.8495 48.4063,341.8495 Q49.1094,341.8495 49.75,342.0058 Q50.4063,342.162 50.9688,342.4589 L50.9688,345.1777 Q50.3438,344.5995 49.75,344.3339 Q49.1563,344.0527 48.5313,344.0527 Q47.1875,344.0527 46.5,345.1308 Q45.8125,346.1933 45.8125,348.287 Q45.8125,350.3808 46.5,351.4589 Q47.1875,352.5214 48.5313,352.5214 Q49.1563,352.5214 49.75,352.2558 Q50.3438,351.9745 50.9688,351.3964 L50.9688,354.1152 Z " fill="#000000"/><text fill="#D9B8FF" font-family="Helvetica" font-size="17" lengthAdjust="spacing" textLength="104" x="67" y="354.3598">azure_usage</text></g><!--class phantom_resource--><g id="elem_phantom_resource"><rect codeLine="26" fill="#3D176E" height="39.7891" id="phantom_resource" rx="2.5" ry="2.5" style="stroke:#000D19;stroke-width:0.5;" width="198" x="7" y="167.79"/><ellipse cx="22" cy="187.6845" fill="#ADD1B2" rx="11" ry="11" style="stroke:#181818;stroke-width:1.0;"/><path d="M24.9688,193.3252 Q24.3906,193.622 23.75,193.7627 Q23.1094,193.9189 22.4063,193.9189 Q19.9063,193.9189 18.5781,192.2783 Q17.2656,190.622 17.2656,187.497 Q17.2656,184.372 18.5781,182.7158 Q19.9063,181.0595 22.4063,181.0595 Q23.1094,181.0595 23.75,181.2158 Q24.4063,181.372 24.9688,181.6689 L24.9688,184.3877 Q24.3438,183.8095 23.75,183.5439 Q23.1563,183.2627 22.5313,183.2627 Q21.1875,183.2627 20.5,184.3408 Q19.8125,185.4033 19.8125,187.497 Q19.8125,189.5908 20.5,190.6689 Q21.1875,191.7314 22.5313,191.7314 Q23.1563,191.7314 23.75,191.4658 Q24.3438,191.1845 24.9688,190.6064 L24.9688,193.3252 Z " fill="#000000"/><text fill="#D9B8FF" font-family="Helvetica" font-size="17" lengthAdjust="spacing" textLength="156" x="41" y="193.5698">phantom_resource</text></g><!--class resource--><g id="elem_resource"><rect codeLine="29" fill="#3D176E" height="39.7891" id="resource" rx="2.5" ry="2.5" style="stroke:#000D19;stroke-width:0.5;" width="113" x="49.5" y="7"/><ellipse cx="64.5" cy="26.8945" fill="#ADD1B2" rx="11" ry="11" style="stroke:#181818;stroke-width:1.0;"/><path d="M67.4688,32.5352 Q66.8906,32.832 66.25,32.9727 Q65.6094,33.1289 64.9063,33.1289 Q62.4063,33.1289 61.0781,31.4883 Q59.7656,29.832 59.7656,26.707 Q59.7656,23.582 61.0781,21.9258 Q62.4063,20.2695 64.9063,20.2695 Q65.6094,20.2695 66.25,20.4258 Q66.9063,20.582 67.4688,20.8789 L67.4688,23.5977 Q66.8438,23.0195 66.25,22.7539 Q65.6563,22.4727 65.0313,22.4727 Q63.6875,22.4727 63,23.5508 Q62.3125,24.6133 62.3125,26.707 Q62.3125,28.8008 63,29.8789 Q63.6875,30.9414 65.0313,30.9414 Q65.6563,30.9414 66.25,30.6758 Q66.8438,30.3945 67.4688,29.8164 L67.4688,32.5352 Z " fill="#000000"/><text fill="#D9B8FF" font-family="Helvetica" font-size="17" lengthAdjust="spacing" textLength="71" x="83.5" y="32.7798">resource</text></g><!--reverse link phantom_resource to azure_usage--><g id="link_phantom_resource_azure_usage"><path codeLine="32" d="M106,225.84 C106,256.36 106,297.69 106,328.25 " fill="none" id="phantom_resource-backto-azure_usage" style="stroke:#FFAF37;stroke-width:2.0;"/><polygon fill="none" points="106,207.84,100,225.84,112,225.84,106,207.84" style="stroke:#FFAF37;stroke-width:2.0;"/></g><!--reverse link resource to phantom_resource--><g id="link_resource_phantom_resource"><path codeLine="33" d="M106,65.05 C106,95.57 106,136.9 106,167.46 " fill="none" id="resource-backto-phantom_resource" style="stroke:#FFAF37;stroke-width:2.0;"/><polygon fill="none" points="106,47.05,100,65.05,112,65.05,106,47.05" style="stroke:#FFAF37;stroke-width:2.0;"/></g><!--SRC=[XP1FJuD04CNlV8fDUYO16wKaNYg9qKjZhFTcO6TX0-oIsSMcLR-xOgjPblwvllURcVUcaXmPjftTiHRR7Ca4ffQg0uAMBOdqDjED9ZOJ0iGyySr7hUnLO0KjiYTitj7A0dpYhP95hT0OTkDO3r3K9UbUySDwIw3CZuNAEbJMW35BQqdclKKd34_pXH0-wI-TpNcStE44qyIHZaWKHJnEVUJggOkz_ucrt2EBtQUjjCL9pCc9N-fYoe5mGawA_lbdCxu0vrALxDRHNW-PI26Dz7K5N6y7Ma1Zt3F68g6skmwpIIjC5rma9-7dSt1G3AzZiEy9Dxs14jb747mTvQu2PNMx8JIwfsBaZRK9UVyPXg6xD_0iVoBu1W00]--></g></svg>

<svg xmlns="http://www.w3.org/2000/svg" width="212" height="374" viewBox="0 0 212 374"><rect width="146" height="39.789" x="33" y="328.58" fill="#3D176E" rx="2.5" ry="2.5" style="stroke:#000d19;stroke-width:.5"/><circle cx="48" cy="348.474" r="11" fill="#ADD1B2" style="stroke:#181818;stroke-width:1"/><path d="M50.969 354.115q-.578.297-1.219.438-.64.156-1.344.156-2.5 0-3.828-1.64-1.312-1.657-1.312-4.782t1.312-4.781q1.328-1.656 3.828-1.656.703 0 1.344.156.656.156 1.219.453v2.719q-.625-.579-1.219-.844-.594-.281-1.219-.281-1.343 0-2.031 1.078-.687 1.062-.687 3.156t.687 3.172q.688 1.062 2.031 1.062.625 0 1.219-.265.594-.281 1.219-.86z"/><text x="67" y="354.36" fill="#D9B8FF" font-family="Helvetica" font-size="17" textLength="104">azure_usage</text><rect width="198" height="39.789" x="7" y="167.79" fill="#3D176E" rx="2.5" ry="2.5" style="stroke:#000d19;stroke-width:.5"/><circle cx="22" cy="187.685" r="11" fill="#ADD1B2" style="stroke:#181818;stroke-width:1"/><path d="M24.969 193.325q-.578.297-1.219.438-.64.156-1.344.156-2.5 0-3.828-1.64-1.312-1.657-1.312-4.782t1.312-4.781q1.328-1.656 3.828-1.656.703 0 1.344.156.656.156 1.219.453v2.719q-.625-.578-1.219-.844-.594-.281-1.219-.281-1.343 0-2.031 1.078-.687 1.062-.687 3.156t.687 3.172q.688 1.062 2.031 1.062.625 0 1.219-.265.594-.281 1.219-.86z"/><text x="41" y="193.57" fill="#D9B8FF" font-family="Helvetica" font-size="17" textLength="156">phantom_resource</text><rect width="113" height="39.789" x="49.5" y="7" fill="#3D176E" rx="2.5" ry="2.5" style="stroke:#000d19;stroke-width:.5"/><circle cx="64.5" cy="26.895" r="11" fill="#ADD1B2" style="stroke:#181818;stroke-width:1"/><path d="M67.469 32.535q-.578.297-1.219.438-.64.156-1.344.156-2.5 0-3.828-1.64-1.312-1.657-1.312-4.782t1.312-4.781q1.328-1.656 3.828-1.656.703 0 1.344.156.656.156 1.219.453v2.719q-.625-.578-1.219-.844-.594-.281-1.219-.281-1.344 0-2.031 1.078-.687 1.062-.687 3.156T63 29.879q.688 1.062 2.031 1.062.625 0 1.219-.265.594-.281 1.219-.86z"/><text x="83.5" y="32.78" fill="#D9B8FF" font-family="Helvetica" font-size="17" textLength="71">resource</text><path fill="none" d="M106 225.84v102.41m0-120.41-6 18h12zm0-142.79v102.41m0-120.41-6 18h12z" style="stroke:#ffaf37;stroke-width:2"/></svg>
